icons/svg/sort-up_24.svg

<?xml version="1.0" encoding="UTF-8"?>
<svg width="24px" height="24px" viewBox="0 0 24 24" version="1.1" xmlns="http://www.w3.org/2000/svg" xmlns:xlink="http://www.w3.org/1999/xlink">
    <!-- Generator: Sketch 58 (84663) - https://sketch.com -->
    <title>sort-up_24</title>
    <desc>Created with Sketch.</desc>
    <g id="New-Icon" stroke="none" stroke-width="1" fill="none" fill-rule="evenodd">
        <g id="formats/sort-up_24" fill="#171B1F">
            <path d="M3.4999,0 C3.5529,0 3.6059,0.008 3.6579,0.026 C3.8619,0.094 3.9999,0.285 3.9999,0.5 L3.9999,23.5 C3.9999,23.776 3.7759,24 3.4999,24 C3.2239,24 2.9999,23.776 2.9999,23.5 L2.9999,2 L0.8999,4.8 C0.7339,5.021 0.4209,5.067 0.1999,4.9 C-0.0211,4.734 -0.0661,4.421 0.0999,4.2 L3.0999,0.2 C3.1959,0.072 3.3459,0 3.4999,0 Z M23.4945,17.9971 C23.7705,17.9971 23.9945,18.2211 23.9945,18.4971 C23.9945,18.7731 23.7705,18.9971 23.4945,18.9971 L23.4945,18.9971 L6.9995,18.9971 C6.7235,18.9971 6.4995,18.7731 6.4995,18.4971 C6.4995,18.2211 6.7235,17.9971 6.9995,17.9971 L6.9995,17.9971 Z M7.001,11.5063 L23.496,11.5063 C23.772,11.5063 23.996,11.7303 23.996,12.0063 C23.996,12.2516333 23.8190123,12.4558802 23.5858381,12.4982396 L23.496,12.5063 L7.001,12.5063 C6.725,12.5063 6.501,12.2823 6.501,12.0063 C6.501,11.7609667 6.67798765,11.5567198 6.91116187,11.5143604 L7.001,11.5063 L23.496,11.5063 Z M23.4959,5.0063 C23.7719,5.0063 23.9959,5.2303 23.9959,5.5063 C23.9959,5.75163333 23.8189123,5.95588025 23.5857381,5.99823964 L23.4959,6.0063 L7.0009,6.0063 C6.7249,6.0063 6.5009,5.7823 6.5009,5.5063 C6.5009,5.26096667 6.67788765,5.05671975 6.91106187,5.01436036 L7.0009,5.0063 L23.4959,5.0063 Z" id="fill"></path>
        </g>
    </g>
</svg>

<svg width="24" height="24" xmlns="http://www.w3.org/2000/svg"><path d="M3.5 0a.5.5 0 01.5.5v23a.5.5 0 01-1 0V2L.9 4.8a.499.499 0 11-.8-.6l3-4a.501.501 0 01.4-.2zm19.994 17.997a.5.5 0 010 1H7a.5.5 0 010-1zm-16.493-6.49h16.495a.5.5 0 01.09.991l-.09.008H7.001a.5.5 0 01-.09-.992l.09-.008h16.495zm16.495-6.5a.5.5 0 01.09.991l-.09.008H7a.5.5 0 01-.09-.992l.09-.008h16.495z" fill="#171B1F" fill-rule="evenodd"/></svg>
